bem/BEM-EdisonShoes/img/logotype.svg

<svg width="105" height="40" viewBox="0 0 105 40" fill="none" xmlns="http://www.w3.org/2000/svg">
<path d="M2.23959 7.55423H13.3612V9.21755H2.23959V15.0161H14.9137V16.6794H0V0.508236H14.5574V2.17155H2.23959V7.55423Z" fill="#2F3250"/>
<path d="M20.1092 2.17155V15.0161H23.9013C24.8853 15.0161 25.7082 14.993 26.3699 14.9468C27.0486 14.8852 27.8121 14.7234 28.6604 14.4616C29.5087 14.1844 30.2213 13.7994 30.7982 13.3065C32.0707 12.1977 32.7069 10.6267 32.7069 8.59381C32.7069 6.57626 32.0707 5.01305 30.7982 3.90418C29.9838 3.19573 29.0337 2.73369 27.9478 2.51808C26.8789 2.28706 25.5555 2.17155 23.9776 2.17155H20.1092ZM17.8696 0.508236H24.6902C26.4208 0.508236 27.9478 0.654546 29.2712 0.947167C30.5946 1.23979 31.7568 1.84043 32.7578 2.74909C34.3018 4.2122 35.0738 6.12963 35.0738 8.5014C35.0738 11.0426 34.2933 13.0216 32.7324 14.4385C31.6974 15.378 30.4419 15.9863 28.9658 16.2635C27.5067 16.5408 25.7421 16.6794 23.6722 16.6794H17.8696V0.508236Z" fill="#2F3250"/>
<path d="M38.7714 0.508236H41.011V16.6794H38.7714V0.508236Z" fill="#2F3250"/>
<path d="M44.7129 11.5739H47.0289V11.6663C47.0289 13.114 47.6651 14.1459 48.9376 14.7619C49.9047 15.224 51.3129 15.455 53.1623 15.455C54.9777 15.455 56.2502 15.2779 56.9798 14.9237C58.1844 14.3846 58.7867 13.5068 58.7867 12.2901C58.7867 11.366 58.3456 10.6499 57.4633 10.1416C56.9543 9.849 55.9533 9.57178 54.4602 9.30996C54.3415 9.29456 54.2482 9.27915 54.1803 9.26375L51.6353 8.84792C51.5844 8.83252 51.3978 8.80172 51.0754 8.75552C50.753 8.70931 50.5494 8.67851 50.4646 8.66311C50.3798 8.64771 50.1847 8.61691 49.8793 8.5707C49.5908 8.5091 49.3872 8.4706 49.2685 8.4552C49.1667 8.4244 48.98 8.38589 48.7086 8.33969C48.4541 8.27808 48.2589 8.22418 48.1232 8.17798C48.0044 8.13177 47.8348 8.07787 47.6142 8.01627C47.4106 7.95466 47.241 7.89306 47.1052 7.83145C46.9865 7.75445 46.8507 7.67744 46.698 7.60044C46.5453 7.52343 46.4096 7.43872 46.2908 7.34632C45.4425 6.71487 45.0183 5.85241 45.0183 4.75894C45.0183 3.09562 45.7903 1.84043 47.3343 0.993371C48.5559 0.331124 50.2949 0 52.5515 0C54.9438 0 56.7847 0.323423 58.0741 0.97027C59.652 1.74032 60.441 2.98011 60.441 4.68963H58.1759C58.1759 3.61155 57.6415 2.8107 56.5726 2.28706C55.7243 1.84043 54.4093 1.61712 52.6278 1.61712C50.9821 1.61712 49.769 1.80963 48.9885 2.19466C48.4456 2.45647 48.0214 2.803 47.716 3.23423C47.4276 3.66546 47.2834 4.12749 47.2834 4.62033C47.2834 5.46739 47.733 6.09883 48.6322 6.51466C49.2769 6.83808 50.5664 7.1384 52.5006 7.41562L55.071 7.80835C57.141 8.13177 58.5916 8.563 59.423 9.10204C60.5258 9.81049 61.0772 10.8578 61.0772 12.2439C61.0772 14.0766 60.195 15.4088 58.4304 16.2404C57.2428 16.7949 55.5037 17.0721 53.2132 17.0721C50.9227 17.0721 49.1751 16.8488 47.9705 16.4022C45.7988 15.5705 44.7129 14.0073 44.7129 11.7125V11.5739Z" fill="#2F3250"/>
<path d="M81.6413 2.40257C83.3889 3.98888 84.2627 6.05263 84.2627 8.59381C84.2627 11.135 83.3889 13.1987 81.6413 14.785C79.8938 16.3714 77.4082 17.1645 74.1845 17.1645C70.9609 17.1645 68.4753 16.3714 66.7277 14.785C64.9801 13.1987 64.1064 11.135 64.1064 8.59381C64.1064 6.05263 64.9801 3.98888 66.7277 2.40257C68.5431 0.816258 71.0287 0.0231027 74.1845 0.0231027C77.3403 0.0231027 79.8259 0.816258 81.6413 2.40257ZM79.6817 3.37284C78.3583 2.21776 76.5259 1.64022 74.1845 1.64022C71.8431 1.64022 70.0107 2.21776 68.6873 3.37284C67.2282 4.60493 66.4987 6.34525 66.4987 8.59381C66.4987 10.8424 67.2282 12.5827 68.6873 13.8148C70.0107 14.9699 71.8431 15.5474 74.1845 15.5474C76.5259 15.5474 78.3583 14.9699 79.6817 13.8148C81.1408 12.5827 81.8704 10.8424 81.8704 8.59381C81.8704 6.34525 81.1408 4.60493 79.6817 3.37284Z" fill="#2F3250"/>
<path d="M105 0.508236V16.6794H102.557L90.519 3.00321V16.6794H88.2794V0.508236H90.7481L102.76 14.1844V0.508236H105Z" fill="#2F3250"/>
<path d="M0.515271 34.6567H2.76598V34.7465C2.76598 36.1534 3.3843 37.1562 4.62095 37.7549C5.56081 38.2039 6.92937 38.4284 8.72663 38.4284C10.4909 38.4284 11.7276 38.2563 12.4366 37.9121C13.6073 37.3882 14.1926 36.5351 14.1926 35.3527C14.1926 34.4546 13.7639 33.7587 12.9065 33.2647C12.4119 32.9804 11.439 32.7109 9.98802 32.4565C9.8726 32.4415 9.78191 32.4266 9.71595 32.4116L7.24265 32.0075C7.19319 31.9925 7.01181 31.9626 6.69853 31.9177C6.38524 31.8728 6.18738 31.8428 6.10493 31.8279C6.02249 31.8129 5.83287 31.783 5.53607 31.7381C5.25577 31.6782 5.0579 31.6408 4.94248 31.6258C4.84355 31.5959 4.66217 31.5585 4.39836 31.5136C4.15102 31.4537 3.96141 31.4013 3.8295 31.3564C3.71408 31.3115 3.54919 31.2591 3.33484 31.1993C3.13697 31.1394 2.97208 31.0795 2.84017 31.0196C2.72475 30.9448 2.59284 30.87 2.44445 30.7951C2.29605 30.7203 2.16414 30.638 2.04872 30.5482C1.22428 29.9345 0.812067 29.0964 0.812067 28.0337C0.812067 26.4172 1.5623 25.1974 3.06277 24.3742C4.24996 23.7306 5.94005 23.4088 8.13304 23.4088C10.4579 23.4088 12.247 23.7231 13.5001 24.3517C15.0336 25.1001 15.8003 26.305 15.8003 27.9663H13.599C13.599 26.9186 13.0796 26.1403 12.0409 25.6314C11.2164 25.1974 9.93855 24.9804 8.20724 24.9804C6.60784 24.9804 5.4289 25.1675 4.67042 25.5416C4.14278 25.7961 3.73056 26.1328 3.43377 26.5519C3.15346 26.971 3.01331 27.42 3.01331 27.899C3.01331 28.7222 3.45026 29.3358 4.32416 29.7399C4.95073 30.0543 6.20387 30.3461 8.08358 30.6155L10.5816 30.9972C12.5932 31.3115 14.003 31.7306 14.811 32.2544C15.8827 32.9429 16.4186 33.9607 16.4186 35.3078C16.4186 37.0889 15.5612 38.3835 13.8464 39.1918C12.6922 39.7306 11.0021 40 8.7761 40C6.55013 40 4.85179 39.783 3.6811 39.3489C1.57055 38.5407 0.515271 37.0215 0.515271 34.7914V34.6567Z" fill="#2F3250"/>
<path d="M22.182 32.1197V39.6183H20.0055V23.9027H22.182V30.5033H33.4108V23.9027H35.5873V39.6183H33.4108V32.1197H22.182Z" fill="#2F3250"/>
<path d="M74.7638 30.7502H85.5721V32.3667H74.7638V38.0019H87.0808V39.6183H72.5873V23.9027H86.7346V25.5192H74.7638V30.7502Z" fill="#2F3250"/>
<path d="M88.989 34.6567H91.2397V34.7465C91.2397 36.1534 91.858 37.1562 93.0946 37.7549C94.0345 38.2039 95.403 38.4284 97.2003 38.4284C98.9646 38.4284 100.201 38.2563 100.91 37.9121C102.081 37.3882 102.666 36.5351 102.666 35.3527C102.666 34.4546 102.238 33.7587 101.38 33.2647C100.886 32.9804 99.9127 32.7109 98.4617 32.4565C98.3463 32.4415 98.2556 32.4266 98.1896 32.4116L95.7163 32.0075C95.6669 31.9925 95.4855 31.9626 95.1722 31.9177C94.8589 31.8728 94.6611 31.8428 94.5786 31.8279C94.4962 31.8129 94.3066 31.783 94.0098 31.7381C93.7294 31.6782 93.5316 31.6408 93.4162 31.6258C93.3172 31.5959 93.1359 31.5585 92.872 31.5136C92.6247 31.4537 92.4351 31.4013 92.3032 31.3564C92.1878 31.3115 92.0229 31.2591 91.8085 31.1993C91.6107 31.1394 91.4458 31.0795 91.3139 31.0196C91.1984 30.9448 91.0665 30.87 90.9181 30.7951C90.7697 30.7203 90.6378 30.638 90.5224 30.5482C89.698 29.9345 89.2857 29.0964 89.2857 28.0337C89.2857 26.4172 90.036 25.1974 91.5365 24.3742C92.7236 23.7306 94.4137 23.4088 96.6067 23.4088C98.9316 23.4088 100.721 23.7231 101.974 24.3517C103.507 25.1001 104.274 26.305 104.274 27.9663H102.073C102.073 26.9186 101.553 26.1403 100.515 25.6314C99.6901 25.1974 98.4122 24.9804 96.6809 24.9804C95.0815 24.9804 93.9026 25.1675 93.1441 25.5416C92.6165 25.7961 92.2042 26.1328 91.9075 26.5519C91.6271 26.971 91.487 27.42 91.487 27.899C91.487 28.7222 91.9239 29.3358 92.7978 29.7399C93.4244 30.0543 94.6775 30.3461 96.5573 30.6155L99.0553 30.9972C101.067 31.3115 102.477 31.7306 103.285 32.2544C104.356 32.9429 104.892 33.9607 104.892 35.3078C104.892 37.0889 104.035 38.3835 102.32 39.1918C101.166 39.7306 99.4758 40 97.2498 40C95.0238 40 93.3255 39.783 92.1548 39.3489C90.0442 38.5407 88.989 37.0215 88.989 34.7914V34.6567Z" fill="#2F3250"/>
<path d="M68.766 31.1993C68.766 37.3564 60.8638 39.6183 54.0808 39.6183C47.2978 39.6183 39.3956 37.3564 39.3956 31.1993C39.3956 25.0421 47.2978 22.7802 54.0808 22.7802C60.8638 22.7802 68.766 25.0421 68.766 31.1993ZM66.826 31.1993C66.826 25.9525 59.8609 24.3687 54.0808 24.3687C48.3007 24.3687 41.3357 25.9525 41.3357 31.1993C41.3357 36.446 48.3007 38.0298 54.0808 38.0298C59.8609 38.0298 66.826 36.446 66.826 31.1993Z" fill="#2F3250"/>
</svg>

<svg viewBox="0 0 105 40" width="105" height="40" xmlns="http://www.w3.org/2000/svg">
	<path d="M2.24 7.55h11.12v1.67H2.24v5.8h12.67v1.66H0V.5h14.56v1.66H2.24v5.38zM20.1 2.17v12.85h3.8c.99 0 1.8-.03 2.47-.07.68-.06 1.44-.23 2.29-.49a6.22 6.22 0 002.14-1.15c1.27-1.11 1.9-2.68 1.9-4.72 0-2.01-.63-3.58-1.9-4.69a6.06 6.06 0 00-2.85-1.38c-1.07-.23-2.4-.35-3.97-.35H20.1zM17.88.51h6.82c1.73 0 3.26.14 4.58.44 1.32.29 2.49.89 3.49 1.8a7.56 7.56 0 012.31 5.75c0 2.54-.78 4.52-2.34 5.94a7.55 7.55 0 01-3.76 1.82c-1.46.28-3.23.42-5.3.42h-5.8V.5zM38.77.5h2.24v16.18h-2.24V.5zM44.71 11.57h2.32v.1c0 1.44.64 2.48 1.9 3.1.97.45 2.38.69 4.23.69 1.82 0 3.09-.18 3.82-.54 1.2-.54 1.8-1.41 1.8-2.63 0-.92-.43-1.64-1.32-2.15a10.57 10.57 0 00-3.28-.88l-2.54-.41a22.93 22.93 0 01-2.37-.4 4.2 4.2 0 01-2.16-.62 4.35 4.35 0 00-.41-.23 3.05 3.05 0 01-1.68-2.84c0-1.66.77-2.92 2.31-3.77C48.56.33 50.3 0 52.55 0c2.4 0 4.23.32 5.52.97a3.87 3.87 0 012.37 3.72h-2.26c0-1.08-.54-1.88-1.6-2.4-.86-.45-2.17-.67-3.95-.67-1.65 0-2.86.19-3.64.57-.54.27-.97.61-1.27 1.04-.3.44-.44.9-.44 1.39 0 .85.45 1.48 1.35 1.9.65.32 1.94.62 3.87.9l2.57.39c2.07.32 3.52.75 4.35 1.3a3.5 3.5 0 011.66 3.13c0 1.84-.88 3.17-2.65 4-1.19.55-2.93.83-5.22.83-2.29 0-4.03-.22-5.24-.67a4.64 4.64 0 01-3.26-4.69v-.14zM81.64 2.4a7.97 7.97 0 012.62 6.2c0 2.54-.87 4.6-2.62 6.19-1.75 1.58-4.23 2.37-7.46 2.37-3.22 0-5.7-.79-7.45-2.38A7.97 7.97 0 0164.1 8.6c0-2.54.87-4.6 2.62-6.19C68.54.82 71.03.02 74.18.02c3.16 0 5.65.8 7.46 2.38zm-1.96.97c-1.32-1.15-3.15-1.73-5.5-1.73-2.34 0-4.17.58-5.5 1.73C67.24 4.6 66.5 6.35 66.5 8.6c0 2.25.73 4 2.19 5.22 1.32 1.16 3.15 1.74 5.5 1.74 2.34 0 4.17-.58 5.5-1.74 1.45-1.23 2.18-2.97 2.18-5.22 0-2.24-.73-3.99-2.19-5.22zM105 .5v16.18h-2.44L90.52 3v13.68h-2.24V.5h2.47l12.01 13.67V.51H105zM.52 34.66h2.25v.09c0 1.4.61 2.4 1.85 3 .94.45 2.3.68 4.1.68 1.77 0 3-.17 3.72-.52 1.17-.52 1.75-1.37 1.75-2.56 0-.9-.43-1.6-1.28-2.09a10.27 10.27 0 00-3.2-.85l-2.47-.4a22.6 22.6 0 01-2.3-.38l-.54-.12a6.98 6.98 0 01-1.07-.31c-.2-.06-.36-.12-.49-.18a4.26 4.26 0 00-.4-.22 2.97 2.97 0 01-1.63-2.76c0-1.62.75-2.84 2.25-3.67 1.19-.64 2.88-.96 5.07-.96 2.33 0 4.12.31 5.37.94a3.76 3.76 0 012.3 3.62h-2.2c0-1.05-.52-1.83-1.56-2.34-.82-.43-2.1-.65-3.83-.65a8.4 8.4 0 00-3.54.56c-.53.26-.94.6-1.24 1.01-.28.42-.42.87-.42 1.35 0 .82.44 1.44 1.31 1.84.63.31 1.88.6 3.76.88l2.5.38c2.01.31 3.42.73 4.23 1.25a3.4 3.4 0 011.6 3.06c0 1.78-.85 3.07-2.56 3.88-1.16.54-2.85.81-5.07.81-2.23 0-3.93-.22-5.1-.65a4.51 4.51 0 01-3.16-4.56v-.13zM22.18 32.12v7.5h-2.17V23.9h2.17v6.6h11.23v-6.6h2.18v15.72H33.4v-7.5H22.18zM74.76 30.75h10.81v1.62h-10.8V38h12.31v1.62h-14.5V23.9h14.15v1.62H74.76v5.23zM88.99 34.66h2.25v.09c0 1.4.62 2.4 1.85 3 .94.45 2.31.68 4.11.68 1.76 0 3-.17 3.71-.52 1.17-.52 1.76-1.37 1.76-2.56 0-.9-.43-1.6-1.29-2.09a10.26 10.26 0 00-3.19-.85l-2.47-.4a22.63 22.63 0 01-2.3-.38l-.55-.12a6.98 6.98 0 01-1.06-.31c-.2-.06-.36-.12-.5-.18a4.27 4.27 0 00-.4-.22 2.97 2.97 0 01-1.63-2.76c0-1.62.76-2.84 2.26-3.67 1.18-.64 2.87-.96 5.07-.96 2.32 0 4.11.31 5.36.94a3.76 3.76 0 012.3 3.62h-2.2c0-1.05-.52-1.83-1.55-2.34-.83-.43-2.1-.65-3.84-.65a8.4 8.4 0 00-3.54.56c-.52.26-.94.6-1.23 1.01-.28.42-.42.87-.42 1.35 0 .82.43 1.44 1.3 1.84.63.31 1.89.6 3.77.88l2.5.38c2 .31 3.42.73 4.22 1.25a3.4 3.4 0 011.61 3.06c0 1.78-.86 3.07-2.57 3.88-1.15.54-2.84.81-5.07.81-2.23 0-3.92-.22-5.1-.65A4.51 4.51 0 0189 34.79v-.13zM68.77 31.2c0 6.16-7.9 8.42-14.69 8.42-6.78 0-14.68-2.26-14.68-8.42s7.9-8.42 14.68-8.42c6.78 0 14.69 2.26 14.69 8.42zm-1.94 0c0-5.25-6.97-6.83-12.75-6.83s-12.74 1.58-12.74 6.83 6.96 6.83 12.74 6.83 12.75-1.58 12.75-6.83z" />
</svg>
